common/src/main/resources/glyphs/plugins/aop/around_advice.svg

<svg xmlns="http://www.w3.org/2000/svg" width="16" height="16" fill="#FF8A65" data-big="true" viewBox="0 0 24 24"><path d="M12 6a6 6 0 0 1 6 6c0 2.22-1.21 4.16-3 5.2V19a1 1 0 0 1-1 1h-4a1 1 0 0 1-1-1v-1.8c-1.79-1.04-3-2.98-3-5.2a6 6 0 0 1 6-6m2 15v1a1 1 0 0 1-1 1h-2a1 1 0 0 1-1-1v-1zm6-10h3v2h-3zM1 11h3v2H1zM13 1v3h-2V1zM4.92 3.5l2.13 2.14-1.42 1.41L3.5 4.93zm12.03 2.13 2.12-2.13 1.43 1.43-2.13 2.12z"/><path fill="#65fffa" d="M.59 16.58 5.17 12 .59 7.41 2 6l6 6-6 6zM16.59 16.58 21.17 12l-4.58-4.59L18 6l6 6-6 6z"/></svg>

<!--
  - The MIT License (MIT)
  -
  - Copyright (c) 2015-2024 Elior "Mallowigi" Boukhobza
  -
  - Permission is hereby granted, free of charge, to any person obtaining a copy
  - of this software and associated documentation files (the "Software"), to deal
  - in the Software without restriction, including without limitation the rights
  - to use, copy, modify, merge, publish, distribute, sublicense, and/or sell
  - copies of the Software, and to permit persons to whom the Software is
  - furnished to do so, subject to the following conditions:
  -
  - The above copyright notice and this permission notice shall be included in all
  - copies or substantial portions of the Software.
  -
  - THE SOFTWARE IS PROVIDED "AS IS", WITHOUT WARRANTY OF ANY KIND, EXPRESS OR
  - IMPLIED, INCLUDING BUT NOT LIMITED TO THE WARRANTIES OF MERCHANTABILITY,
  - FITNESS FOR A PARTICULAR PURPOSE AND NONINFRINGEMENT. IN NO EVENT SHALL THE
  - AUTHORS OR COPYRIGHT HOLDERS BE LIABLE FOR ANY CLAIM, DAMAGES OR OTHER
  - LIABILITY, WHETHER IN AN ACTION OF CONTRACT, TORT OR OTHERWISE, ARISING FROM,
  - OUT OF OR IN CONNECTION WITH THE SOFTWARE OR THE USE OR OTHER DEALINGS IN THE
  - SOFTWARE.
  -->


<svg data-big="true" xmlns="http://www.w3.org/2000/svg" version="1.1" width="16px" height="16px" viewBox="0 0 24 24"
     fill="#FF8A65">
  <path
    d="M12,6A6,6 0 0,1 18,12C18,14.22 16.79,16.16 15,17.2V19A1,1 0 0,1 14,20H10A1,1 0 0,1 9,19V17.2C7.21,16.16 6,14.22 6,12A6,6 0 0,1 12,6M14,21V22A1,1 0 0,1 13,23H11A1,1 0 0,1 10,22V21H14M20,11H23V13H20V11M1,11H4V13H1V11M13,1V4H11V1H13M4.92,3.5L7.05,5.64L5.63,7.05L3.5,4.93L4.92,3.5M16.95,5.63L19.07,3.5L20.5,4.93L18.37,7.05L16.95,5.63Z"/>
  <path fill="#65fffa" transform="translate(-8)" d="M8.59,16.58L13.17,12L8.59,7.41L10,6L16,12L10,18L8.59,16.58Z"/>
  <path fill="#65fffa" transform="translate(8)" d="M8.59,16.58L13.17,12L8.59,7.41L10,6L16,12L10,18L8.59,16.58Z"/>

</svg>
